X:2
T:Alternate B-part for St. Jean, up an octave, particularly recommended for accordions:
M: C|
L: 1/8
R: reel
K:D
|:"D"dcde defg|"D/F#"a2ab afed|"G"d'2 bd' "D/F#"afde|"E7"fdef "A"ecBA|
"D"dcde defg|"D/F#"a2ab afed|"G"d'2 bd' "D/F#"afde|1"A"fdec "D"d2zA:|[2 "A"fdec "D"df2e|]
%%textfont Times-Roman 6.0
%%text 

#include "LeftHeader.h"
%%text Set 109 NEFFA 2012 Old-Time Set
%%scale .9
$SmallLMargin
$SmallRMargin
